luts/template/template.CUBE
#identity lut
LUT_3D_SIZE 32 
0.000000 0.000000 0.000000
0.031373 0.000000 0.000000
0.062745 0.000000 0.000000
0.094118 0.000000 0.000000
0.125490 0.000000 0.000000
0.156863 0.000000 0.000000
0.188235 0.000000 0.000000
0.219608 0.000000 0.000000
0.250980 0.000000 0.000000
0.282353 0.000000 0.000000
0.313725 0.000000 0.000000
0.345098 0.000000 0.000000
0.376471 0.000000 0.000000
0.407843 0.000000 0.000000
0.439216 0.000000 0.000000
0.470588 0.000000 0.000000
0.501961 0.000000 0.000000
0.533333 0.000000 0.000000
0.564706 0.000000 0.000000
0.596078 0.000000 0.000000
0.627451 0.000000 0.000000
0.658824 0.000000 0.000000
0.690196 0.000000 0.000000
0.721569 0.000000 0.000000
0.752941 0.000000 0.000000
0.784314 0.000000 0.000000
0.815686 0.000000 0.000000
0.847059 0.000000 0.000000
0.878431 0.000000 0.000000
0.909804 0.000000 0.000000
0.941176 0.000000 0.000000
0.972549 0.000000 0.000000
0.000000 0.031373 0.000000
0.031373 0.031373 0.000000
0.062745 0.031373 0.000000
0.094118 0.031373 0.000000
0.125490 0.031373 0.000000
0.156863 0.031373 0.000000
0.188235 0.031373 0.000000
0.219608 0.031373 0.000000
0.250980 0.031373 0.000000
0.282353 0.031373 0.000000
0.313725 0.031373 0.000000
0.345098 0.031373 0.000000
0.376471 0.031373 0.000000
0.407843 0.031373 0.000000
0.439216 0.031373 0.000000
0.470588 0.031373 0.000000
0.501961 0.031373 0.000000
0.533333 0.031373 0.000000
0.564706 0.031373 0.000000
0.596078 0.031373 0.000000
0.627451 0.031373 0.000000
0.658824 0.031373 0.000000
0.690196 0.031373 0.000000
0.721569 0.031373 0.000000
0.752941 0.031373 0.000000
0.784314 0.031373 0.000000
0.815686 0.031373 0.000000
0.847059 0.031373 0.000000
0.878431 0.031373 0.000000
0.909804 0.031373 0.000000
0.941176 0.031373 0.000000
0.972549 0.031373 0.000000
0.000000 0.062745 0.000000
0.031373 0.062745 0.000000
0.062745 0.062745 0.000000
0.094118 0.062745 0.000000
0.125490 0.062745 0.000000
0.156863 0.062745 0.000000
0.188235 0.062745 0.000000
0.219608 0.062745 0.000000
0.250980 0.062745 0.000000
0.282353 0.062745 0.000000
0.313725 0.062745 0.000000
0.345098 0.062745 0.000000
0.376471 0.062745 0.000000
0.407843 0.062745 0.000000
0.439216 0.062745 0.000000
0.470588 0.062745 0.000000
0.501961 0.062745 0.000000
0.533333 0.062745 0.000000
0.564706 0.062745 0.000000
0.596078 0.062745 0.000000
0.627451 0.062745 0.000000
0.658824 0.062745 0.000000
0.690196 0.062745 0.000000
0.721569 0.062745 0.000000
0.752941 0.062745 0.000000
0.784314 0.062745 0.000000
0.815686 0.062745 0.000000
0.847059 0.062745 0.000000
0.878431 0.062745 0.000000
0.909804 0.062745 0.000000
0.941176 0.062745 0.000000
0.972549 0.062745 0.000000
0.000000 0.094118 0.000000
0.031373 0.094118 0.000000
0.062745 0.094118 0.000000
0.094118 0.094118 0.000000
0.125490 0.094118 0.000000
0.156863 0.094118 0.000000
0.188235 0.094118 0.000000
0.219608 0.094118 0.000000
0.250980 0.094118 0.000000
0.282353 0.094118 0.000000
0.313725 0.094118 0.000000
0.345098 0.094118 0.000000
0.376471 0.094118 0.000000
0.407843 0.094118 0.000000
0.439216 0.094118 0.000000
0.470588 0.094118 0.000000
0.501961 0.094118 0.000000
0.533333 0.094118 0.000000
0.564706 0.094118 0.000000
0.596078 0.094118 0.000000
0.627451 0.094118 0.000000
0.658824 0.094118 0.000000
0.690196 0.094118 0.000000
0.721569 0.094118 0.000000
0.752941 0.094118 0.000000
0.784314 0.094118 0.000000
0.815686 0.094118 0.000000
0.847059 0.094118 0.000000
0.878431 0.094118 0.000000
0.909804 0.094118 0.000000
0.941176 0.094118 0.000000
0.972549 0.094118 0.000000
0.000000 0.125490 0.000000
0.031373 0.125490 0.000000
0.062745 0.125490 0.000000
0.094118 0.125490 0.000000
0.125490 0.125490 0.000000
0.156863 0.125490 0.000000
0.188235 0.125490 0.000000
0.219608 0.125490 0.000000
0.250980 0.125490 0.000000
0.282353 0.125490 0.000000
0.313725 0.125490 0.000000
0.345098 0.125490 0.000000
0.376471 0.125490 0.000000
0.407843 0.125490 0.000000
0.439216 0.125490 0.000000
0.470588 0.125490 0.000000
0.501961 0.125490 0.000000
0.533333 0.125490 0.000000
0.564706 0.125490 0.000000
0.596078 0.125490 0.000000
0.627451 0.125490 0.000000
0.658824 0.125490 0.000000
0.690196 0.125490 0.000000
0.721569 0.125490 0.000000
0.752941 0.125490 0.000000
0.784314 0.125490 0.000000
0.815686 0.125490 0.000000
0.847059 0.125490 0.000000
0.878431 0.125490 0.000000
0.909804 0.125490 0.000000
0.941176 0.125490 0.000000
0.972549 0.125490 0.000000
0.000000 0.156863 0.000000
0.031373 0.156863 0.000000
0.062745 0.156863 0.000000
0.094118 0.156863 0.000000
0.125490 0.156863 0.000000
0.156863 0.156863 0.000000
0.188235 0.156863 0.000000
0.219608 0.156863 0.000000
0.250980 0.156863 0.000000
0.282353 0.156863 0.000000
0.313725 0.156863 0.000000
0.345098 0.156863 0.000000
0.376471 0.156863 0.000000
0.407843 0.156863 0.000000
0.439216 0.156863 0.000000
0.470588 0.156863 0.000000
0.501961 0.156863 0.000000
0.533333 0.156863 0.000000
0.564706 0.156863 0.000000
0.596078 0.156863 0.000000
0.627451 0.156863 0.000000
0.658824 0.156863 0.000000
0.690196 0.156863 0.000000
0.721569 0.156863 0.000000
0.752941 0.156863 0.000000
0.784314 0.156863 0.000000
0.815686 0.156863 0.000000
0.847059 0.156863 0.000000
0.878431 0.156863 0.000000
0.909804 0.156863 0.000000
0.941176 0.156863 0.000000
0.972549 0.156863 0.000000
0.000000 0.188235 0.000000
0.031373 0.188235 0.000000
0.062745 0.188235 0.000000
0.094118 0.188235 0.000000
0.125490 0.188235 0.000000
0.156863 0.188235 0.000000
0.188235 0.188235 0.000000
0.219608 0.188235 0.000000
0.250980 0.188235 0.000000
0.282353 0.188235 0.000000
0.313725 0.188235 0.000000
0.345098 0.188235 0.000000
0.376471 0.188235 0.000000
0.407843 0.188235 0.000000
0.439216 0.188235 0.000000
0.470588 0.188235 0.000000
0.501961 0.188235 0.000000
0.533333 0.188235 0.000000
0.564706 0.188235 0.000000
0.596078 0.188235 0.000000
0.627451 0.188235 0.000000
0.658824 0.188235 0.000000
0.690196 0.188235 0.000000
0.721569 0.188235 0.000000
0.752941 0.188235 0.000000
0.784314 0.188235 0.000000
0.815686 0.188235 0.000000
0.847059 0.188235 0.000000
0.878431 0.188235 0.000000
0.909804 0.188235 0.000000
0.941176 0.188235 0.000000
0.972549 0.188235 0.000000
0.000000 0.219608 0.000000
0.031373 0.219608 0.000000
0.062745 0.219608 0.000000
0.094118 0.219608 0.000000
0.125490 0.219608 0.000000
0.156863 0.219608 0.000000
0.188235 0.219608 0.000000
0.219608 0.219608 0.000000
0.250980 0.219608 0.000000
0.282353 0.219608 0.000000
0.313725 0.219608 0.000000
0.345098 0.219608 0.000000
0.376471 0.219608 0.000000
0.407843 0.219608 0.000000
0.439216 0.219608 0.000000
0.470588 0.219608 0.000000
0.501961 0.219608 0.000000
0.533333 0.219608 0.000000
0.564706 0.219608 0.000000
0.596078 0.219608 0.000000
0.627451 0.219608 0.000000
0.658824 0.219608 0.000000
0.690196 0.219608 0.000000
0.721569 0.219608 0.000000
0.752941 0.219608 0.000000
0.784314 0.219608 0.000000
0.815686 0.219608 0.000000
0.847059 0.219608 0.000000
0.878431 0.219608 0.000000
0.909804 0.219608 0.000000
0.941176 0.219608 0.000000
0.972549 0.219608 0.000000
0.000000 0.250980 0.000000
0.031373 0.250980 0.000000
0.062745 0.250980 0.000000
0.094118 0.250980 0.000000
0.125490 0.250980 0.000000
0.156863 0.250980 0.000000
0.188235 0.250980 0.000000
0.219608 0.250980 0.000000
0.250980 0.250980 0.000000
0.282353 0.250980 0.000000
0.313725 0.250980 0.000000
0.345098 0.250980 0.000000
0.376471 0.250980 0.000000
0.407843 0.250980 0.000000
0.439216 0.250980 0.000000
0.470588 0.250980 0.000000
0.501961 0.250980 0.000000
0.533333 0.250980 0.000000
0.564706 0.250980 0.000000
0.596078 0.250980 0.000000
0.627451 0.250980 0.000000
0.658824 0.250980 0.000000
0.690196 0.250980 0.000000
0.721569 0.250980 0.000000
0.752941 0.250980 0.000000
0.784314 0.250980 0.000000
0.815686 0.250980 0.000000
0.847059 0.250980 0.000000
0.878431 0.250980 0.000000
0.909804 0.250980 0.000000
0.941176 0.250980 0.000000
0.972549 0.250980 0.000000
0.000000 0.282353 0.000000
0.031373 0.282353 0.000000
0.062745 0.282353 0.000000
0.094118 0.282353 0.000000
0.125490 0.282353 0.000000
0.156863 0.282353 0.000000
0.188235 0.282353 0.000000
0.219608 0.282353 0.000000
0.250980 0.282353 0.000000
0.282353 0.282353 0.000000
0.313725 0.282353 0.000000
0.345098 0.282353 0.000000
0.376471 0.282353 0.000000
0.407843 0.282353 0.000000
0.439216 0.282353 0.000000
0.470588 0.282353 0.000000
0.501961 0.282353 0.000000
0.533333 0.282353 0.000000
0.564706 0.282353 0.000000
0.596078 0.282353 0.000000
0.627451 0.282353 0.000000
0.658824 0.282353 0.000000
0.690196 0.282353 0.000000
0.721569 0.282353 0.000000
0.752941 0.282353 0.000000
0.784314 0.282353 0.000000
0.815686 0.282353 0.000000
0.847059 0.282353 0.000000
0.878431 0.282353 0.000000
0.909804 0.282353 0.000000
0.941176 0.282353 0.000000
0.972549 0.282353 0.000000
0.000000 0.313725 0.000000
0.031373 0.313725 0.000000
0.062745 0.313725 0.000000
0.094118 0.313725 0.000000
0.125490 0.313725 0.000000
0.156863 0.313725 0.000000
0.188235 0.313725 0.000000
0.219608 0.313725 0.000000
0.250980 0.313725 0.000000
0.282353 0.313725 0.000000
0.313725 0.313725 0.000000
0.345098 0.313725 0.000000
0.376471 0.313725 0.000000
0.407843 0.313725 0.000000
0.439216 0.313725 0.000000
0.470588 0.313725 0.000000
0.501961 0.313725 0.000000
0.533333 0.313725 0.000000
0.564706 0.313725 0.000000
0.596078 0.313725 0.000000
0.627451 0.313725 0.000000
0.658824 0.313725 0.000000
0.690196 0.313725 0.000000
0.721569 0.313725 0.000000
0.752941 0.313725 0.000000
0.784314 0.313725 0.000000
0.815686 0.313725 0.000000
0.847059 0.313725 0.000000
0.878431 0.313725 0.000000
0.909804 0.313725 0.000000
0.941176 0.313725 0.000000
0.972549 0.313725 0.000000
0.000000 0.345098 0.000000
0.031373 0.345098 0.000000
0.062745 0.345098 0.000000
0.094118 0.345098 0.000000
0.125490 0.345098 0.000000
0.156863 0.345098 0.000000
0.188235 0.345098 0.000000
0.219608 0.345098 0.000000
0.250980 0.345098 0.000000
0.282353 0.345098 0.000000
0.313725 0.345098 0.000000
0.345098 0.345098 0.000000
0.376471 0.345098 0.000000
0.407843 0.345098 0.000000
0.439216 0.345098 0.000000
0.470588 0.345098 0.000000
0.501961 0.345098 0.000000
0.533333 0.345098 0.000000
0.564706 0.345098 0.000000
0.596078 0.345098 0.000000
0.627451 0.345098 0.000000
0.658824 0.345098 0.000000
0.690196 0.345098 0.000000
0.721569 0.345098 0.000000
0.752941 0.345098 0.000000
0.784314 0.345098 0.000000
0.815686 0.345098 0.000000
0.847059 0.345098 0.000000
0.878431 0.345098 0.000000
0.909804 0.345098 0.000000
0.941176 0.345098 0.000000
0.972549 0.345098 0.000000
0.000000 0.376471 0.000000
0.031373 0.376471 0.000000
0.062745 0.376471 0.000000
0.094118 0.376471 0.000000
0.125490 0.376471 0.000000
0.156863 0.376471 0.000000
0.188235 0.376471 0.000000
0.219608 0.376471 0.000000
0.250980 0.376471 0.000000
0.282353 0.376471 0.000000
0.313725 0.376471 0.000000
0.345098 0.376471 0.000000
0.376471 0.376471 0.000000
0.407843 0.376471 0.000000
0.439216 0.376471 0.000000
0.470588 0.376471 0.000000
0.501961 0.376471 0.000000
0.533333 0.376471 0.000000
0.564706 0.376471 0.000000
0.596078 0.376471 0.000000
0.627451 0.376471 0.000000
0.658824 0.376471 0.000000
0.690196 0.376471 0.000000
0.721569 0.376471 0.000000
0.752941 0.376471 0.000000
0.784314 0.376471 0.000000
0.815686 0.376471 0.000000
0.847059 0.376471 0.000000
0.878431 0.376471 0.000000
0.909804 0.376471 0.000000
0.941176 0.376471 0.000000
0.972549 0.376471 0.000000
0.000000 0.407843 0.000000
0.031373 0.407843 0.000000
0.062745 0.407843 0.000000
0.094118 0.407843 0.000000
0.125490 0.407843 0.000000
0.156863 0.407843 0.000000
0.188235 0.407843 0.000000
0.219608 0.407843 0.000000
0.250980 0.407843 0.000000
0.282353 0.407843 0.000000
0.313725 0.407843 0.000000
0.345098 0.407843 0.000000
0.376471 0.407843 0.000000
0.407843 0.407843 0.000000
0.439216 0.407843 0.000000
0.470588 0.407843 0.000000
0.501961 0.407843 0.000000
0.533333 0.407843 0.000000
0.564706 0.407843 0.000000
0.596078 0.407843 0.000000
0.627451 0.407843 0.000000
0.658824 0.407843 0.000000
0.690196 0.407843 0.000000
0.721569 0.407843 0.000000
0.752941 0.407843 0.000000
0.784314 0.407843 0.000000
0.815686 0.407843 0.000000
0.847059 0.407843 0.000000
0.878431 0.407843 0.000000
0.909804 0.407843 0.000000
0.941176 0.407843 0.000000
0.972549 0.407843 0.000000
0.000000 0.439216 0.000000
0.031373 0.439216 0.000000
0.062745 0.439216 0.000000
0.094118 0.439216 0.000000
0.125490 0.439216 0.000000
0.156863 0.439216 0.000000
0.188235 0.439216 0.000000
0.219608 0.439216 0.000000
0.250980 0.439216 0.000000
0.282353 0.439216 0.000000
0.313725 0.439216 0.000000
0.345098 0.439216 0.000000
0.376471 0.439216 0.000000
0.407843 0.439216 0.000000
0.439216 0.439216 0.000000
0.470588 0.439216 0.000000
0.501961 0.439216 0.000000
0.533333 0.439216 0.000000
0.564706 0.439216 0.000000
0.596078 0.439216 0.000000
0.627451 0.439216 0.000000
0.658824 0.439216 0.000000
0.690196 0.439216 0.000000
0.721569 0.439216 0.000000
0.752941 0.439216 0.000000
0.784314 0.439216 0.000000
0.815686 0.439216 0.000000
0.847059 0.439216 0.000000
0.878431 0.439216 0.000000
0.909804 0.439216 0.000000
0.941176 0.439216 0.000000
0.972549 0.439216 0.000000
0.000000 0.470588 0.000000
0.031373 0.470588 0.000000
0.062745 0.470588 0.000000
0.094118 0.470588 0.000000
0.125490 0.470588 0.000000
0.156863 0.470588 0.000000
0.188235 0.470588 0.000000
0.219608 0.470588 0.000000
0.250980 0.470588 0.000000
0.282353 0.470588 0.000000
0.313725 0.470588 0.000000
0.345098 0.470588 0.000000
0.376471 0.470588 0.000000
0.407843 0.470588 0.000000
0.439216 0.470588 0.000000
0.470588 0.470588 0.000000
0.501961 0.470588 0.000000
0.533333 0.470588 0.000000
0.564706 0.470588 0.000000
0.596078 0.470588 0.000000
0.627451 0.470588 0.000000
0.658824 0.470588 0.000000
0.690196 0.470588 0.000000
0.721569 0.470588 0.000000
0.752941 0.470588 0.000000
0.784314 0.470588 0.000000
0.815686 0.470588 0.000000
0.847059 0.470588 0.000000
0.878431 0.470588 0.000000
0.909804 0.470588 0.000000
0.941176 0.470588 0.000000
0.972549 0.470588 0.000000
0.000000 0.501961 0.000000
0.031373 0.501961 0.000000
0.062745 0.501961 0.000000
0.094118 0.501961 0.000000
0.125490 0.501961 0.000000
0.156863 0.501961 0.000000
0.188235 0.501961 0.000000
0.219608 0.501961 0.000000
0.250980 0.501961 0.000000
0.282353 0.501961 0.000000
0.313725 0.501961 0.000000
0.345098 0.501961 0.000000
0.376471 0.501961 0.000000
0.407843 0.501961 0.000000
0.439216 0.501961 0.000000
0.470588 0.501961 0.000000
0.501961 0.501961 0.000000
0.533333 0.501961 0.000000
0.564706 0.501961 0.000000
0.596078 0.501961 0.000000
0.627451 0.501961 0.000000
0.658824 0.501961 0.000000
0.690196 0.501961 0.000000
0.721569 0.501961 0.000000
0.752941 0.501961 0.000000
0.784314 0.501961 0.000000
0.815686 0.501961 0.000000
0.847059 0.501961 0.000000
0.878431 0.501961 0.000000
0.909804 0.501961 0.000000
0.941176 0.501961 0.000000
0.972549 0.501961 0.000000
0.000000 0.533333 0.000000
0.031373 0.533333 0.000000
0.062745 0.533333 0.000000
0.094118 0.533333 0.000000
0.125490 0.533333 0.000000
0.156863 0.533333 0.000000
0.188235 0.533333 0.000000
0.219608 0.533333 0.000000
0.250980 0.533333 0.000000
0.282353 0.533333 0.000000
0.313725 0.533333 0.000000
0.345098 0.533333 0.000000
0.376471 0.533333 0.000000
0.407843 0.533333 0.000000
0.439216 0.533333 0.000000
0.470588 0.533333 0.000000
0.501961 0.533333 0.000000
0.533333 0.533333 0.000000
0.564706 0.533333 0.000000
0.596078 0.533333 0.000000
0.627451 0.533333 0.000000
0.658824 0.533333 0.000000
0.690196 0.533333 0.000000
0.721569 0.533333 0.000000
0.752941 0.533333 0.000000
0.784314 0.533333 0.000000
0.815686 0.533333 0.000000
0.847059 0.533333 0.000000
0.878431 0.533333 0.000000
0.909804 0.533333 0.000000
0.941176 0.533333 0.000000
0.972549 0.533333 0.000000
0.000000 0.564706 0.000000
0.031373 0.564706 0.000000
0.062745 0.564706 0.000000
0.094118 0.564706 0.000000
0.125490 0.564706 0.000000
0.156863 0.564706 0.000000
0.188235 0.564706 0.000000
0.219608 0.564706 0.000000
0.250980 0.564706 0.000000
0.282353 0.564706 0.000000
0.313725 0.564706 0.000000
0.345098 0.564706 0.000000
0.376471 0.564706 0.000000
0.407843 0.564706 0.000000
0.439216 0.564706 0.000000
0.470588 0.564706 0.000000
0.501961 0.564706 0.000000
0.533333 0.564706 0.000000
0.564706 0.564706 0.000000
0.596078 0.564706 0.000000
0.627451 0.564706 0.000000
0.658824 0.564706 0.000000
0.690196 0.564706 0.000000
0.721569 0.564706 0.000000
0.752941 0.564706 0.000000
0.784314 0.564706 0.000000
0.815686 0.564706 0.000000
0.847059 0.564706 0.000000
0.878431 0.564706 0.000000
0.909804 0.564706 0.000000
0.941176 0.564706 0.000000
0.972549 0.564706 0.000000
0.000000 0.596078 0.000000
0.031373 0.596078 0.000000
0.062745 0.596078 0.000000
0.094118 0.596078 0.000000
0.125490 0.596078 0.000000
0.156863 0.596078 0.000000
0.188235 0.596078 0.000000
0.219608 0.596078 0.000000
0.250980 0.596078 0.000000
0.282353 0.596078 0.000000
0.313725 0.596078 0.000000
0.345098 0.596078 0.000000
0.376471 0.596078 0.000000
0.407843 0.596078 0.000000
0.439216 0.596078 0.000000
0.470588 0.596078 0.000000
0.501961 0.596078 0.000000
0.533333 0.596078 0.000000
0.564706 0.596078 0.000000
0.596078 0.596078 0.000000
0.627451 0.596078 0.000000
0.658824 0.596078 0.000000
0.690196 0.596078 0.000000
0.721569 0.596078 0.000000
0.752941 0.596078 0.000000
0.784314 0.596078 0.000000
0.815686 0.596078 0.000000
0.847059 0.596078 0.000000
0.878431 0.596078 0.000000
0.909804 0.596078 0.000000
0.941176 0.596078 0.000000
0.972549 0.596078 0.000000
0.000000 0.627451 0.000000
0.031373 0.627451 0.000000
0.062745 0.627451 0.000000
0.094118 0.627451 0.000000
0.125490 0.627451 0.000000
0.156863 0.627451 0.000000
0.188235 0.627451 0.000000
0.219608 0.627451 0.000000
0.250980 0.627451 0.000000
0.282353 0.627451 0.000000
0.313725 0.627451 0.000000
0.345098 0.627451 0.000000
0.376471 0.627451 0.000000
0.407843 0.627451 0.000000
0.439216 0.627451 0.000000
0.470588 0.627451 0.000000
0.501961 0.627451 0.000000
0.533333 0.627451 0.000000
0.564706 0.627451 0.000000
0.596078 0.627451 0.000000
0.627451 0.627451 0.000000
0.658824 0.627451 0.000000
0.690196 0.627451 0.000000
0.721569 0.627451 0.000000
0.752941 0.627451 0.000000
0.784314 0.627451 0.000000
0.815686 0.627451 0.000000
0.847059 0.627451 0.000000
0.878431 0.627451 0.000000
0.909804 0.627451 0.000000
0.941176 0.627451 0.000000
0.972549 0.627451 0.000000
0.000000 0.658824 0.000000
0.031373 0.658824 0.000000
0.062745 0.658824 0.000000
0.094118 0.658824 0.000000
0.125490 0.658824 0.000000
0.156863 0.658824 0.000000
0.188235 0.658824 0.000000
0.219608 0.658824 0.000000
0.250980 0.658824 0.000000
0.282353 0.658824 0.000000
0.313725 0.658824 0.000000
0.345098 0.658824 0.000000
0.376471 0.658824 0.000000
0.407843 0.658824 0.000000
0.439216 0.658824 0.000000
0.470588 0.658824 0.000000
0.501961 0.658824 0.000000
0.533333 0.658824 0.000000
0.564706 0.658824 0.000000
0.596078 0.658824 0.000000
0.627451 0.658824 0.000000
0.658824 0.658824 0.000000
0.690196 0.658824 0.000000
0.721569 0.658824 0.000000
0.752941 0.658824 0.000000
0.784314 0.658824 0.000000
0.815686 0.658824 0.000000
0.847059 0.658824 0.000000
0.878431 0.658824 0.000000
0.909804 0.658824 0.000000
0.941176 0.658824 0.000000
0.972549 0.658824 0.000000
0.000000 0.690196 0.000000
0.031373 0.690196 0.000000
0.062745 0.690196 0.000000
0.094118 0.690196 0.000000
0.125490 0.690196 0.000000
0.156863 0.690196 0.000000
0.188235 0.690196 0.000000
0.219608 0.690196 0.000000
0.250980 0.690196 0.000000
0.282353 0.690196 0.000000
0.313725 0.690196 0.000000
0.345098 0.690196 0.000000
0.376471 0.690196 0.000000
0.407843 0.690196 0.000000
0.439216 0.690196 0.000000
0.470588 0.690196 0.000000
0.501961 0.690196 0.000000
0.533333 0.690196 0.000000
0.564706 0.690196 0.000000
0.596078 0.690196 0.000000
0.627451 0.690196 0.000000
0.658824 0.690196 0.000000
0.690196 0.690196 0.000000
0.721569 0.690196 0.000000
0.752941 0.690196 0.000000
0.784314 0.690196 0.000000
0.815686 0.690196 0.000000
0.847059 0.690196 0.000000
0.878431 0.690196 0.000000
0.909804 0.690196 0.000000
0.941176 0.690196 0.000000
0.972549 0.690196 0.000000
0.000000 0.721569 0.000000
0.031373 0.721569 0.000000
0.062745 0.721569 0.000000
0.094118 0.721569 0.000000
0.125490 0.721569 0.000000
0.156863 0.721569 0.000000
0.188235 0.721569 0.000000
0.219608 0.721569 0.000000
0.250980 0.721569 0.000000
0.282353 0.721569 0.000000
0.313725 0.721569 0.000000
0.345098 0.721569 0.000000
0.376471 0.721569 0.000000
0.407843 0.721569 0.000000
0.439216 0.721569 0.000000
0.470588 0.721569 0.000000
0.501961 0.721569 0.000000
0.533333 0.721569 0.000000
0.564706 0.721569 0.000000
0.596078 0.721569 0.000000
0.627451 0.721569 0.000000
0.658824 0.721569 0.000000
0.690196 0.721569 0.000000
0.721569 0.721569 0.000000
0.752941 0.721569 0.000000
0.784314 0.721569 0.000000
0.815686 0.721569 0.000000
0.847059 0.721569 0.000000
0.878431 0.721569 0.000000
0.909804 0.721569 0.000000
0.941176 0.721569 0.000000
0.972549 0.721569 0.000000
0.000000 0.752941 0.000000
0.031373 0.752941 0.000000
0.062745 0.752941 0.000000
0.094118 0.752941 0.000000
0.125490 0.752941 0.000000
0.156863 0.752941 0.000000
0.188235 0.752941 0.000000
0.219608 0.752941 0.000000
0.250980 0.752941 0.000000
0.282353 0.752941 0.000000
0.313725 0.752941 0.000000
0.345098 0.752941 0.000000
0.376471 0.752941 0.000000
0.407843 0.752941 0.000000
0.439216 0.752941 0.000000
0.470588 0.752941 0.000000
0.501961 0.752941 0.000000
0.533333 0.752941 0.000000
0.564706 0.752941 0.000000
0.596078 0.752941 0.000000
0.627451 0.752941 0.000000
0.658824 0.752941 0.000000
0.690196 0.752941 0.000000
0.721569 0.752941 0.000000
0.752941 0.752941 0.000000
0.784314 0.752941 0.000000
0.815686 0.752941 0.000000
0.847059 0.752941 0.000000
0.878431 0.752941 0.000000
0.909804 0.752941 0.000000
0.941176 0.752941 0.000000
0.972549 0.752941 0.000000
0.000000 0.784314 0.000000
0.031373 0.784314 0.000000
0.062745 0.784314 0.000000
0.094118 0.784314 0.000000
0.125490 0.784314 0.000000
0.156863 0.784314 0.000000
0.188235 0.784314 0.000000
0.219608 0.784314 0.000000
0.250980 0.784314 0.000000
0.282353 0.784314 0.000000
0.313725 0.784314 0.000000
0.345098 0.784314 0.000000
0.376471 0.784314 0.000000
0.407843 0.784314 0.000000
0.439216 0.784314 0.000000
0.470588 0.784314 0.000000
0.501961 0.784314 0.000000
0.533333 0.784314 0.000000
0.564706 0.784314 0.000000
0.596078 0.784314 0.000000
0.627451 0.784314 0.000000
0.658824 0.784314 0.000000
0.690196 0.784314 0.000000
0.721569 0.784314 0.000000
0.752941 0.784314 0.000000
0.784314 0.784314 0.000000
0.815686 0.784314 0.000000
0.847059 0.784314 0.000000
0.878431 0.784314 0.000000
0.909804 0.784314 0.000000
0.941176 0.784314 0.000000
0.972549 0.784314 0.000000
0.000000 0.815686 0.000000
0.031373 0.815686 0.000000
0.062745 0.815686 0.000000
0.094118 0.815686 0.000000
0.125490 0.815686 0.000000
0.156863 0.815686 0.000000
0.188235 0.815686 0.000000
0.219608 0.815686 0.000000
0.250980 0.815686 0.000000
0.282353 0.815686 0.000000
0.313725 0.815686 0.000000
0.345098 0.815686 0.000000
0.376471 0.815686 0.000000
0.407843 0.815686 0.000000
0.439216 0.815686 0.000000
0.470588 0.815686 0.000000
0.501961 0.815686 0.000000
0.533333 0.815686 0.000000
0.564706 0.815686 0.000000
0.596078 0.815686 0.000000
0.627451 0.815686 0.000000
0.658824 0.815686 0.000000
0.690196 0.815686 0.000000
0.721569 0.815686 0.000000
0.752941 0.815686 0.000000
0.784314 0.815686 0.000000
0.815686 0.815686 0.000000
0.847059 0.815686 0.000000
0.878431 0.815686 0.000000
0.909804 0.815686 0.000000
0.941176 0.815686 0.000000
0.972549 0.815686 0.000000
0.000000 0.847059 0.000000
0.031373 0.847059 0.000000
0.062745 0.847059 0.000000
0.094118 0.847059 0.000000
0.125490 0.847059 0.000000
0.156863 0.847059 0.000000
0.188235 0.847059 0.000000
0.219608 0.847059 0.000000
0.250980 0.847059 0.000000
0.282353 0.847059 0.000000
0.313725 0.847059 0.000000
0.345098 0.847059 0.000000
0.376471 0.847059 0.000000
0.407843 0.847059 0.000000
0.439216 0.847059 0.000000
0.470588 0.847059 0.000000
0.501961 0.847059 0.000000
0.533333 0.847059 0.000000
0.564706 0.847059 0.000000
0.596078 0.847059 0.000000
0.627451 0.847059 0.000000
0.658824 0.847059 0.000000
0.690196 0.847059 0.000000
