luts/template/template.CUBE
#identity lut
LUT_3D_SIZE 5 
DOMAIN_MIN 0.000000 0.000000 0.000000
DOMAIN_MAX 0.903226 0.903226 0.903226
0.000000 0.000000 0.000000
0.219608 0.000000 0.000000
0.439216 0.000000 0.000000
0.658824 0.000000 0.000000
0.878431 0.000000 0.000000
0.000000 0.219608 0.000000
0.219608 0.219608 0.000000
0.439216 0.219608 0.000000
0.658824 0.219608 0.000000
0.878431 0.219608 0.000000
0.000000 0.439216 0.000000
0.219608 0.439216 0.000000
0.439216 0.439216 0.000000
0.658824 0.439216 0.000000
0.878431 0.439216 0.000000
0.000000 0.658824 0.000000
0.219608 0.658824 0.000000
0.439216 0.658824 0.000000
0.658824 0.658824 0.000000
0.878431 0.658824 0.000000
0.000000 0.878431 0.000000
0.219608 0.878431 0.000000
0.439216 0.878431 0.000000
0.658824 0.878431 0.000000
0.878431 0.878431 0.000000
0.000000 0.000000 0.219608
0.219608 0.000000 0.219608
0.439216 0.000000 0.219608
0.658824 0.000000 0.219608
0.878431 0.000000 0.219608
0.000000 0.219608 0.219608
0.219608 0.219608 0.219608
0.439216 0.219608 0.219608
0.658824 0.219608 0.219608
0.878431 0.219608 0.219608
0.000000 0.439216 0.219608
0.219608 0.439216 0.219608
0.439216 0.439216 0.219608
0.658824 0.439216 0.219608
0.878431 0.439216 0.219608
0.000000 0.658824 0.219608
0.219608 0.658824 0.219608
0.439216 0.658824 0.219608
0.658824 0.658824 0.219608
0.878431 0.658824 0.219608
0.000000 0.878431 0.219608
0.219608 0.878431 0.219608
0.439216 0.878431 0.219608
0.658824 0.878431 0.219608
0.878431 0.878431 0.219608
0.000000 0.000000 0.439216
0.219608 0.000000 0.439216
0.439216 0.000000 0.439216
0.658824 0.000000 0.439216
0.878431 0.000000 0.439216
0.000000 0.219608 0.439216
0.219608 0.219608 0.439216
0.439216 0.219608 0.439216
0.658824 0.219608 0.439216
0.878431 0.219608 0.439216
0.000000 0.439216 0.439216
0.219608 0.439216 0.439216
0.439216 0.439216 0.439216
0.658824 0.439216 0.439216
0.878431 0.439216 0.439216
0.000000 0.658824 0.439216
0.219608 0.658824 0.439216
0.439216 0.658824 0.439216
0.658824 0.658824 0.439216
0.878431 0.658824 0.439216
0.000000 0.878431 0.439216
0.219608 0.878431 0.439216
0.439216 0.878431 0.439216
0.658824 0.878431 0.439216
0.878431 0.878431 0.439216
0.000000 0.000000 0.658824
0.219608 0.000000 0.658824
0.439216 0.000000 0.658824
0.658824 0.000000 0.658824
0.878431 0.000000 0.658824
0.000000 0.219608 0.658824
0.219608 0.219608 0.658824
0.439216 0.219608 0.658824
0.658824 0.219608 0.658824
0.878431 0.219608 0.658824
0.000000 0.439216 0.658824
0.219608 0.439216 0.658824
0.439216 0.439216 0.658824
0.658824 0.439216 0.658824
0.878431 0.439216 0.658824
0.000000 0.658824 0.658824
0.219608 0.658824 0.658824
0.439216 0.658824 0.658824
0.658824 0.658824 0.658824
0.878431 0.658824 0.658824
0.000000 0.878431 0.658824
0.219608 0.878431 0.658824
0.439216 0.878431 0.658824
0.658824 0.878431 0.658824
0.878431 0.878431 0.658824
0.000000 0.000000 0.878431
0.219608 0.000000 0.878431
0.439216 0.000000 0.878431
0.658824 0.000000 0.878431
0.878431 0.000000 0.878431
0.000000 0.219608 0.878431
0.219608 0.219608 0.878431
0.439216 0.219608 0.878431
0.658824 0.219608 0.878431
0.878431 0.219608 0.878431
0.000000 0.439216 0.878431
0.219608 0.439216 0.878431
0.439216 0.439216 0.878431
0.658824 0.439216 0.878431
0.878431 0.439216 0.878431
0.000000 0.658824 0.878431
0.219608 0.658824 0.878431
0.439216 0.658824 0.878431
0.658824 0.658824 0.878431
0.878431 0.658824 0.878431
0.000000 0.878431 0.878431
0.219608 0.878431 0.878431
0.439216 0.878431 0.878431
0.658824 0.878431 0.878431
0.878431 0.878431 0.878431
