luts/template/template.CUBE
#identity lut
LUT_3D_SIZE 8 
DOMAIN_MIN 0.000000 0.000000 0.000000
DOMAIN_MAX 0.903226 0.903226 0.903226
0.000000 0.000000 0.000000
0.125490 0.000000 0.000000
0.250980 0.000000 0.000000
0.376471 0.000000 0.000000
0.501961 0.000000 0.000000
0.627451 0.000000 0.000000
0.752941 0.000000 0.000000
0.878431 0.000000 0.000000
0.000000 0.125490 0.000000
0.125490 0.125490 0.000000
0.250980 0.125490 0.000000
0.376471 0.125490 0.000000
0.501961 0.125490 0.000000
0.627451 0.125490 0.000000
0.752941 0.125490 0.000000
0.878431 0.125490 0.000000
0.000000 0.250980 0.000000
0.125490 0.250980 0.000000
0.250980 0.250980 0.000000
0.376471 0.250980 0.000000
0.501961 0.250980 0.000000
0.627451 0.250980 0.000000
0.752941 0.250980 0.000000
0.878431 0.250980 0.000000
0.000000 0.376471 0.000000
0.125490 0.376471 0.000000
0.250980 0.376471 0.000000
0.376471 0.376471 0.000000
0.501961 0.376471 0.000000
0.627451 0.376471 0.000000
0.752941 0.376471 0.000000
0.878431 0.376471 0.000000
0.000000 0.501961 0.000000
0.125490 0.501961 0.000000
0.250980 0.501961 0.000000
0.376471 0.501961 0.000000
0.501961 0.501961 0.000000
0.627451 0.501961 0.000000
0.752941 0.501961 0.000000
0.878431 0.501961 0.000000
0.000000 0.627451 0.000000
0.125490 0.627451 0.000000
0.250980 0.627451 0.000000
0.376471 0.627451 0.000000
0.501961 0.627451 0.000000
0.627451 0.627451 0.000000
0.752941 0.627451 0.000000
0.878431 0.627451 0.000000
0.000000 0.752941 0.000000
0.125490 0.752941 0.000000
0.250980 0.752941 0.000000
0.376471 0.752941 0.000000
0.501961 0.752941 0.000000
0.627451 0.752941 0.000000
0.752941 0.752941 0.000000
0.878431 0.752941 0.000000
0.000000 0.878431 0.000000
0.125490 0.878431 0.000000
0.250980 0.878431 0.000000
0.376471 0.878431 0.000000
0.501961 0.878431 0.000000
0.627451 0.878431 0.000000
0.752941 0.878431 0.000000
0.878431 0.878431 0.000000
0.000000 0.000000 0.125490
0.125490 0.000000 0.125490
0.250980 0.000000 0.125490
0.376471 0.000000 0.125490
0.501961 0.000000 0.125490
0.627451 0.000000 0.125490
0.752941 0.000000 0.125490
0.878431 0.000000 0.125490
0.000000 0.125490 0.125490
0.125490 0.125490 0.125490
0.250980 0.125490 0.125490
0.376471 0.125490 0.125490
0.501961 0.125490 0.125490
0.627451 0.125490 0.125490
0.752941 0.125490 0.125490
0.878431 0.125490 0.125490
0.000000 0.250980 0.125490
0.125490 0.250980 0.125490
0.250980 0.250980 0.125490
0.376471 0.250980 0.125490
0.501961 0.250980 0.125490
0.627451 0.250980 0.125490
0.752941 0.250980 0.125490
0.878431 0.250980 0.125490
0.000000 0.376471 0.125490
0.125490 0.376471 0.125490
0.250980 0.376471 0.125490
0.376471 0.376471 0.125490
0.501961 0.376471 0.125490
0.627451 0.376471 0.125490
0.752941 0.376471 0.125490
0.878431 0.376471 0.125490
0.000000 0.501961 0.125490
0.125490 0.501961 0.125490
0.250980 0.501961 0.125490
0.376471 0.501961 0.125490
0.501961 0.501961 0.125490
0.627451 0.501961 0.125490
0.752941 0.501961 0.125490
0.878431 0.501961 0.125490
0.000000 0.627451 0.125490
0.125490 0.627451 0.125490
0.250980 0.627451 0.125490
0.376471 0.627451 0.125490
0.501961 0.627451 0.125490
0.627451 0.627451 0.125490
0.752941 0.627451 0.125490
0.878431 0.627451 0.125490
0.000000 0.752941 0.125490
0.125490 0.752941 0.125490
0.250980 0.752941 0.125490
0.376471 0.752941 0.125490
0.501961 0.752941 0.125490
0.627451 0.752941 0.125490
0.752941 0.752941 0.125490
0.878431 0.752941 0.125490
0.000000 0.878431 0.125490
0.125490 0.878431 0.125490
0.250980 0.878431 0.125490
0.376471 0.878431 0.125490
0.501961 0.878431 0.125490
0.627451 0.878431 0.125490
0.752941 0.878431 0.125490
0.878431 0.878431 0.125490
0.000000 0.000000 0.250980
0.125490 0.000000 0.250980
0.250980 0.000000 0.250980
0.376471 0.000000 0.250980
0.501961 0.000000 0.250980
0.627451 0.000000 0.250980
0.752941 0.000000 0.250980
0.878431 0.000000 0.250980
0.000000 0.125490 0.250980
0.125490 0.125490 0.250980
0.250980 0.125490 0.250980
0.376471 0.125490 0.250980
0.501961 0.125490 0.250980
0.627451 0.125490 0.250980
0.752941 0.125490 0.250980
0.878431 0.125490 0.250980
0.000000 0.250980 0.250980
0.125490 0.250980 0.250980
0.250980 0.250980 0.250980
0.376471 0.250980 0.250980
0.501961 0.250980 0.250980
0.627451 0.250980 0.250980
0.752941 0.250980 0.250980
0.878431 0.250980 0.250980
0.000000 0.376471 0.250980
0.125490 0.376471 0.250980
0.250980 0.376471 0.250980
0.376471 0.376471 0.250980
0.501961 0.376471 0.250980
0.627451 0.376471 0.250980
0.752941 0.376471 0.250980
0.878431 0.376471 0.250980
0.000000 0.501961 0.250980
0.125490 0.501961 0.250980
0.250980 0.501961 0.250980
0.376471 0.501961 0.250980
0.501961 0.501961 0.250980
0.627451 0.501961 0.250980
0.752941 0.501961 0.250980
0.878431 0.501961 0.250980
0.000000 0.627451 0.250980
0.125490 0.627451 0.250980
0.250980 0.627451 0.250980
0.376471 0.627451 0.250980
0.501961 0.627451 0.250980
0.627451 0.627451 0.250980
0.752941 0.627451 0.250980
0.878431 0.627451 0.250980
0.000000 0.752941 0.250980
0.125490 0.752941 0.250980
0.250980 0.752941 0.250980
0.376471 0.752941 0.250980
0.501961 0.752941 0.250980
0.627451 0.752941 0.250980
0.752941 0.752941 0.250980
0.878431 0.752941 0.250980
0.000000 0.878431 0.250980
0.125490 0.878431 0.250980
0.250980 0.878431 0.250980
0.376471 0.878431 0.250980
0.501961 0.878431 0.250980
0.627451 0.878431 0.250980
0.752941 0.878431 0.250980
0.878431 0.878431 0.250980
0.000000 0.000000 0.376471
0.125490 0.000000 0.376471
0.250980 0.000000 0.376471
0.376471 0.000000 0.376471
0.501961 0.000000 0.376471
0.627451 0.000000 0.376471
0.752941 0.000000 0.376471
0.878431 0.000000 0.376471
0.000000 0.125490 0.376471
0.125490 0.125490 0.376471
0.250980 0.125490 0.376471
0.376471 0.125490 0.376471
0.501961 0.125490 0.376471
0.627451 0.125490 0.376471
0.752941 0.125490 0.376471
0.878431 0.125490 0.376471
0.000000 0.250980 0.376471
0.125490 0.250980 0.376471
0.250980 0.250980 0.376471
0.376471 0.250980 0.376471
0.501961 0.250980 0.376471
0.627451 0.250980 0.376471
0.752941 0.250980 0.376471
0.878431 0.250980 0.376471
0.000000 0.376471 0.376471
0.125490 0.376471 0.376471
0.250980 0.376471 0.376471
0.376471 0.376471 0.376471
0.501961 0.376471 0.376471
0.627451 0.376471 0.376471
0.752941 0.376471 0.376471
0.878431 0.376471 0.376471
0.000000 0.501961 0.376471
0.125490 0.501961 0.376471
0.250980 0.501961 0.376471
0.376471 0.501961 0.376471
0.501961 0.501961 0.376471
0.627451 0.501961 0.376471
0.752941 0.501961 0.376471
0.878431 0.501961 0.376471
0.000000 0.627451 0.376471
0.125490 0.627451 0.376471
0.250980 0.627451 0.376471
0.376471 0.627451 0.376471
0.501961 0.627451 0.376471
0.627451 0.627451 0.376471
0.752941 0.627451 0.376471
0.878431 0.627451 0.376471
0.000000 0.752941 0.376471
0.125490 0.752941 0.376471
0.250980 0.752941 0.376471
0.376471 0.752941 0.376471
0.501961 0.752941 0.376471
0.627451 0.752941 0.376471
0.752941 0.752941 0.376471
0.878431 0.752941 0.376471
0.000000 0.878431 0.376471
0.125490 0.878431 0.376471
0.250980 0.878431 0.376471
0.376471 0.878431 0.376471
0.501961 0.878431 0.376471
0.627451 0.878431 0.376471
0.752941 0.878431 0.376471
0.878431 0.878431 0.376471
0.000000 0.000000 0.501961
0.125490 0.000000 0.501961
0.250980 0.000000 0.501961
0.376471 0.000000 0.501961
0.501961 0.000000 0.501961
0.627451 0.000000 0.501961
0.752941 0.000000 0.501961
0.878431 0.000000 0.501961
0.000000 0.125490 0.501961
0.125490 0.125490 0.501961
0.250980 0.125490 0.501961
0.376471 0.125490 0.501961
0.501961 0.125490 0.501961
0.627451 0.125490 0.501961
0.752941 0.125490 0.501961
0.878431 0.125490 0.501961
0.000000 0.250980 0.501961
0.125490 0.250980 0.501961
0.250980 0.250980 0.501961
0.376471 0.250980 0.501961
0.501961 0.250980 0.501961
0.627451 0.250980 0.501961
0.752941 0.250980 0.501961
0.878431 0.250980 0.501961
0.000000 0.376471 0.501961
0.125490 0.376471 0.501961
0.250980 0.376471 0.501961
0.376471 0.376471 0.501961
0.501961 0.376471 0.501961
0.627451 0.376471 0.501961
0.752941 0.376471 0.501961
0.878431 0.376471 0.501961
0.000000 0.501961 0.501961
0.125490 0.501961 0.501961
0.250980 0.501961 0.501961
0.376471 0.501961 0.501961
0.501961 0.501961 0.501961
0.627451 0.501961 0.501961
0.752941 0.501961 0.501961
0.878431 0.501961 0.501961
0.000000 0.627451 0.501961
0.125490 0.627451 0.501961
0.250980 0.627451 0.501961
0.376471 0.627451 0.501961
0.501961 0.627451 0.501961
0.627451 0.627451 0.501961
0.752941 0.627451 0.501961
0.878431 0.627451 0.501961
0.000000 0.752941 0.501961
0.125490 0.752941 0.501961
0.250980 0.752941 0.501961
0.376471 0.752941 0.501961
0.501961 0.752941 0.501961
0.627451 0.752941 0.501961
0.752941 0.752941 0.501961
0.878431 0.752941 0.501961
0.000000 0.878431 0.501961
0.125490 0.878431 0.501961
0.250980 0.878431 0.501961
0.376471 0.878431 0.501961
0.501961 0.878431 0.501961
0.627451 0.878431 0.501961
0.752941 0.878431 0.501961
0.878431 0.878431 0.501961
0.000000 0.000000 0.627451
0.125490 0.000000 0.627451
0.250980 0.000000 0.627451
0.376471 0.000000 0.627451
0.501961 0.000000 0.627451
0.627451 0.000000 0.627451
0.752941 0.000000 0.627451
0.878431 0.000000 0.627451
0.000000 0.125490 0.627451
0.125490 0.125490 0.627451
0.250980 0.125490 0.627451
0.376471 0.125490 0.627451
0.501961 0.125490 0.627451
0.627451 0.125490 0.627451
0.752941 0.125490 0.627451
0.878431 0.125490 0.627451
0.000000 0.250980 0.627451
0.125490 0.250980 0.627451
0.250980 0.250980 0.627451
0.376471 0.250980 0.627451
0.501961 0.250980 0.627451
0.627451 0.250980 0.627451
0.752941 0.250980 0.627451
0.878431 0.250980 0.627451
0.000000 0.376471 0.627451
0.125490 0.376471 0.627451
0.250980 0.376471 0.627451
0.376471 0.376471 0.627451
0.501961 0.376471 0.627451
0.627451 0.376471 0.627451
0.752941 0.376471 0.627451
0.878431 0.376471 0.627451
0.000000 0.501961 0.627451
0.125490 0.501961 0.627451
0.250980 0.501961 0.627451
0.376471 0.501961 0.627451
0.501961 0.501961 0.627451
0.627451 0.501961 0.627451
0.752941 0.501961 0.627451
0.878431 0.501961 0.627451
0.000000 0.627451 0.627451
0.125490 0.627451 0.627451
0.250980 0.627451 0.627451
0.376471 0.627451 0.627451
0.501961 0.627451 0.627451
0.627451 0.627451 0.627451
0.752941 0.627451 0.627451
0.878431 0.627451 0.627451
0.000000 0.752941 0.627451
0.125490 0.752941 0.627451
0.250980 0.752941 0.627451
0.376471 0.752941 0.627451
0.501961 0.752941 0.627451
0.627451 0.752941 0.627451
0.752941 0.752941 0.627451
0.878431 0.752941 0.627451
0.000000 0.878431 0.627451
0.125490 0.878431 0.627451
0.250980 0.878431 0.627451
0.376471 0.878431 0.627451
0.501961 0.878431 0.627451
0.627451 0.878431 0.627451
0.752941 0.878431 0.627451
0.878431 0.878431 0.627451
0.000000 0.000000 0.752941
0.125490 0.000000 0.752941
0.250980 0.000000 0.752941
0.376471 0.000000 0.752941
0.501961 0.000000 0.752941
0.627451 0.000000 0.752941
0.752941 0.000000 0.752941
0.878431 0.000000 0.752941
0.000000 0.125490 0.752941
0.125490 0.125490 0.752941
0.250980 0.125490 0.752941
0.376471 0.125490 0.752941
0.501961 0.125490 0.752941
0.627451 0.125490 0.752941
0.752941 0.125490 0.752941
0.878431 0.125490 0.752941
0.000000 0.250980 0.752941
0.125490 0.250980 0.752941
0.250980 0.250980 0.752941
0.376471 0.250980 0.752941
0.501961 0.250980 0.752941
0.627451 0.250980 0.752941
0.752941 0.250980 0.752941
0.878431 0.250980 0.752941
0.000000 0.376471 0.752941
0.125490 0.376471 0.752941
0.250980 0.376471 0.752941
0.376471 0.376471 0.752941
0.501961 0.376471 0.752941
0.627451 0.376471 0.752941
0.752941 0.376471 0.752941
0.878431 0.376471 0.752941
0.000000 0.501961 0.752941
0.125490 0.501961 0.752941
0.250980 0.501961 0.752941
0.376471 0.501961 0.752941
0.501961 0.501961 0.752941
0.627451 0.501961 0.752941
0.752941 0.501961 0.752941
0.878431 0.501961 0.752941
0.000000 0.627451 0.752941
0.125490 0.627451 0.752941
0.250980 0.627451 0.752941
0.376471 0.627451 0.752941
0.501961 0.627451 0.752941
0.627451 0.627451 0.752941
0.752941 0.627451 0.752941
0.878431 0.627451 0.752941
0.000000 0.752941 0.752941
0.125490 0.752941 0.752941
0.250980 0.752941 0.752941
0.376471 0.752941 0.752941
0.501961 0.752941 0.752941
0.627451 0.752941 0.752941
0.752941 0.752941 0.752941
0.878431 0.752941 0.752941
0.000000 0.878431 0.752941
0.125490 0.878431 0.752941
0.250980 0.878431 0.752941
0.376471 0.878431 0.752941
0.501961 0.878431 0.752941
0.627451 0.878431 0.752941
0.752941 0.878431 0.752941
0.878431 0.878431 0.752941
0.000000 0.000000 0.878431
0.125490 0.000000 0.878431
0.250980 0.000000 0.878431
0.376471 0.000000 0.878431
0.501961 0.000000 0.878431
0.627451 0.000000 0.878431
0.752941 0.000000 0.878431
0.878431 0.000000 0.878431
0.000000 0.125490 0.878431
0.125490 0.125490 0.878431
0.250980 0.125490 0.878431
0.376471 0.125490 0.878431
0.501961 0.125490 0.878431
0.627451 0.125490 0.878431
0.752941 0.125490 0.878431
0.878431 0.125490 0.878431
0.000000 0.250980 0.878431
0.125490 0.250980 0.878431
0.250980 0.250980 0.878431
0.376471 0.250980 0.878431
0.501961 0.250980 0.878431
0.627451 0.250980 0.878431
0.752941 0.250980 0.878431
0.878431 0.250980 0.878431
0.000000 0.376471 0.878431
0.125490 0.376471 0.878431
0.250980 0.376471 0.878431
0.376471 0.376471 0.878431
0.501961 0.376471 0.878431
0.627451 0.376471 0.878431
0.752941 0.376471 0.878431
0.878431 0.376471 0.878431
0.000000 0.501961 0.878431
0.125490 0.501961 0.878431
0.250980 0.501961 0.878431
0.376471 0.501961 0.878431
0.501961 0.501961 0.878431
0.627451 0.501961 0.878431
0.752941 0.501961 0.878431
0.878431 0.501961 0.878431
0.000000 0.627451 0.878431
0.125490 0.627451 0.878431
0.250980 0.627451 0.878431
0.376471 0.627451 0.878431
0.501961 0.627451 0.878431
0.627451 0.627451 0.878431
0.752941 0.627451 0.878431
0.878431 0.627451 0.878431
0.000000 0.752941 0.878431
0.125490 0.752941 0.878431
0.250980 0.752941 0.878431
0.376471 0.752941 0.878431
0.501961 0.752941 0.878431
0.627451 0.752941 0.878431
0.752941 0.752941 0.878431
0.878431 0.752941 0.878431
0.000000 0.878431 0.878431
0.125490 0.878431 0.878431
0.250980 0.878431 0.878431
0.376471 0.878431 0.878431
0.501961 0.878431 0.878431
0.627451 0.878431 0.878431
0.752941 0.878431 0.878431
0.878431 0.878431 0.878431
